www/b14d48e0-1285-11e4-9191-0800200c9a66/4.svg

<?xml version="1.0" encoding="UTF-8"?>
<!DOCTYPE svg PUBLIC "-//W3C//DTD SVG 1.1 Tiny//EN" "http://www.w3.org/Graphics/SVG/1.1/DTD/svg11-tiny.dtd">
<svg version="1.1" baseProfile="tiny" xmlns="http://www.w3.org/2000/svg" xmlns:xlink="http://www.w3.org/1999/xlink" width="1012.25" height="183.469" viewBox="-20 -20 1012.25 183.469" >
  <defs>
    <path id="arrow" stroke-width="0" d="M 0 0 L 0 12 L 16 6 Z" />
  </defs>
  <rect fill="transparent" stroke="none" x="-20" y="-20" width="1012.25" height="183.469" />
  <a xlink:href="75.html" id="a0">
    <path id="a0" fill="none" stroke="blue" stroke-width="2" d="M 0 32.6165 L 137.75 32.6165 " />
    <use xlink:href="#arrow" transform="translate(121.75 26.6165)" />
    <text text-anchor="middle" fill="black" font-size="15" x="68.875" y="47.6165">S01</text>
  </a>
  <a xlink:href="78.html" id="a1">
    <path id="a1" fill="none" stroke="blue" stroke-width="2" d="M 210.75 53.4759 L 348.5 53.4759 " />
    <use xlink:href="#arrow" transform="translate(332.5 47.4759)" />
    <text text-anchor="middle" fill="black" font-size="15" x="279.625" y="68.4759">S02</text>
  </a>
  <a xlink:href="90.html" id="a2">
    <path id="a2" fill="none" stroke="blue" stroke-width="2" d="M 137.75 74.3353 L 111.75 74.3353 L 111.75 128.469 L 725.5 128.469 L 725.5 0 L 860.5 0 L 860.5 72.6016 L 834.5 72.6016 " />
    <use xlink:href="#arrow" transform="translate(121.75 68.3353)" />
    <text text-anchor="middle" fill="black" font-size="15" x="279.625" y="143.469">S06</text>
  </a>
  <a xlink:href="81.html" id="a3">
    <path id="a3" fill="none" stroke="blue" stroke-width="2" d="M 408.5 53.4759 L 550 53.4759 " />
    <use xlink:href="#arrow" transform="translate(534 47.4759)" />
    <text text-anchor="middle" fill="black" font-size="15" x="477.375" y="68.4759">S03</text>
  </a>
  <a xlink:href="87.html" id="a4">
    <path id="a4" fill="none" stroke="blue" stroke-width="2" d="M 610 28.4795 L 735.5 28.4795 L 735.5 51.7344 L 761.5 51.7344 " />
    <use xlink:href="#arrow" transform="translate(745.5 45.7344)" />
    <text text-anchor="middle" fill="black" font-size="15" x="682.625" y="43.4795">S05</text>
  </a>
  <a xlink:href="84.html" id="a5">
    <path id="a5" fill="none" stroke="blue" stroke-width="2" d="M 610 78.4723 L 639.75 78.4723 L 639.75 118.469 L 972.25 118.469 " />
    <use xlink:href="#arrow" transform="translate(956.25 112.469)" />
    <text text-anchor="middle" fill="black" font-size="15" x="903.375" y="133.469">S04</text>
  </a>
  <a xlink:href="93.html" id="a6">
    <path id="a6" fill="none" stroke="blue" stroke-width="2" d="M 834.5 30.8672 L 972.25 30.8672 " />
    <use xlink:href="#arrow" transform="translate(956.25 24.8672)" />
    <text text-anchor="middle" fill="black" font-size="15" x="903.375" y="45.8672">S07</text>
  </a>
  <a xlink:href="69.html" id="a7">
    <rect id="a7" stroke="black" stroke-width="0.5" fill="none" x="137.75" y="11.7572" width="73" height="83.4375" />
    <image x="137.75" y="11.7572" width="73" height="83.4375" xlink:href="b14d48e0-1285-11e4-9191-0800200c9a66/Mixer.svg" />
    <text text-anchor="middle" fill="black" font-size="15" x="174.25" y="110.195">MIX</text>
  </a>
  <a xlink:href="70.html" id="a8">
    <rect id="a8" stroke="black" stroke-width="0.5" fill="none" x="348.5" y="3.48305" width="60" height="99.9857" />
    <image x="348.5" y="3.48305" width="60" height="99.9857" xlink:href="b14d48e0-1285-11e4-9191-0800200c9a66/FlashDrum.svg" />
    <text text-anchor="middle" fill="black" font-size="15" x="378.5" y="118.469">RX</text>
  </a>
  <a xlink:href="73.html" id="a9">
    <rect id="a9" stroke="black" stroke-width="0.5" fill="none" x="550" y="3.48305" width="60" height="99.9857" />
    <image x="550" y="3.48305" width="60" height="99.9857" xlink:href="b14d48e0-1285-11e4-9191-0800200c9a66/Separator.svg" />
    <text text-anchor="middle" fill="black" font-size="15" x="580" y="118.469">FILTER</text>
  </a>
  <a xlink:href="74.html" id="a10">
    <rect id="a10" stroke="black" stroke-width="0.5" fill="none" x="761.5" y="10" width="73" height="83.4688" />
    <image x="761.5" y="10" width="73" height="83.4688" xlink:href="b14d48e0-1285-11e4-9191-0800200c9a66/Divider.svg" />
    <text text-anchor="middle" fill="black" font-size="15" x="798" y="108.469">SPL</text>
  </a>
</svg>

<?xml version="1.0" encoding="UTF-8" standalone="no"?>
<svg xmlns="http://www.w3.org/2000/svg" xmlns:xlink="http://www.w3.org/1999/xlink" baseProfile="tiny" height="183.47" width="1012.2" version="1.1" viewBox="-20 -20 1012.25 183.469">
  <defs>
    <path id="arrow" stroke-width="0" d="m0 0v12l16-6z"/>
  </defs>
  <rect y="-20" width="1012.2" fill="transparent" x="-20" height="183.47"/>
  <a id="a0" xlink:href="5.html">
    <path id="a0" stroke="blue" stroke-width="2" fill="none" d="m0 32.616h137.75"/>
    <use xlink:href="#arrow" transform="translate(121.75 26.616)"/>
    <text y="47.6165" x="68.875" font-size="15" text-anchor="middle" fill="black">S01</text>
  </a>
  <a id="a1" xlink:href="5.html">
    <path id="a1" stroke="blue" stroke-width="2" fill="none" d="m210.75 53.476h137.75"/>
    <use xlink:href="#arrow" transform="translate(332.5 47.476)"/>
    <text y="68.4759" x="279.625" font-size="15" text-anchor="middle" fill="black">S02</text>
  </a>
  <a id="a2" xlink:href="0.html">
    <path id="a2" stroke="blue" stroke-width="2" fill="none" d="m137.75 74.335h-26v54.135h613.75v-128.47h135v72.602h-26"/>
    <use xlink:href="#arrow" transform="translate(121.75 68.335)"/>
    <text y="143.469" x="279.625" font-size="15" text-anchor="middle" fill="black">S06</text>
  </a>
  <a id="a3" xlink:href="1.html">
    <path id="a3" stroke="blue" stroke-width="2" fill="none" d="m408.5 53.476h141.5"/>
    <use xlink:href="#arrow" transform="translate(534 47.476)"/>
    <text y="68.4759" x="477.375" font-size="15" text-anchor="middle" fill="black">S03</text>
  </a>
  <a id="a4" xlink:href="6.html">
    <path id="a4" stroke="blue" stroke-width="2" fill="none" d="m610 28.48h125.5v23.254h26"/>
    <use xlink:href="#arrow" transform="translate(745.5 45.734)"/>
    <text y="43.4795" x="682.625" font-size="15" text-anchor="middle" fill="black">S05</text>
  </a>
  <a id="a5" xlink:href="5.html">
    <path id="a5" stroke="blue" stroke-width="2" fill="none" d="m610 78.472h29.75v39.998h332.5"/>
    <use xlink:href="#arrow" transform="translate(956.25 112.47)"/>
    <text y="133.469" x="903.375" font-size="15" text-anchor="middle" fill="black">S04</text>
  </a>
  <a id="a6" xlink:href="3.html">
    <path id="a6" stroke="blue" stroke-width="2" fill="none" d="m834.5 30.867h137.75"/>
    <use xlink:href="#arrow" transform="translate(956.25 24.867)"/>
    <text y="45.8672" x="903.375" font-size="15" text-anchor="middle" fill="black">S07</text>
  </a>
  <a id="a7" xlink:href="3.html">
    <rect id="a7" height="83.438" width="73" stroke="#000" y="11.757" x="137.75" stroke-width=".5" fill="none"/>
    <image y="11.757" x="137.75" xlink:href="b14d48e0-1285-11e4-9191-0800200c9a66/Mixer.svg" width="73" height="83.438"/>
    <text y="110.195" x="174.25" font-size="15" text-anchor="middle" fill="black">MIX</text>
  </a>
  <a id="a8" xlink:href="0.html">
    <rect id="a8" height="99.986" width="60" stroke="#000" y="3.483" x="348.5" stroke-width=".5" fill="none"/>
    <image y="3.483" x="348.5" xlink:href="b14d48e0-1285-11e4-9191-0800200c9a66/FlashDrum.svg" width="60" height="99.986"/>
    <text y="118.469" x="378.5" font-size="15" text-anchor="middle" fill="black">RX</text>
  </a>
  <a id="a9" xlink:href="3.html">
    <rect id="a9" height="99.986" width="60" stroke="#000" y="3.483" x="550" stroke-width=".5" fill="none"/>
    <image y="3.483" x="550" xlink:href="b14d48e0-1285-11e4-9191-0800200c9a66/Separator.svg" width="60" height="99.986"/>
    <text y="118.469" x="580" font-size="15" text-anchor="middle" fill="black">FILTER</text>
  </a>
  <a id="a10" xlink:href="5.html">
    <rect id="a10" height="83.469" width="73" stroke="#000" y="10" x="761.5" stroke-width=".5" fill="none"/>
    <image y="10" x="761.5" xlink:href="b14d48e0-1285-11e4-9191-0800200c9a66/Divider.svg" width="73" height="83.469"/>
    <text y="108.469" x="798" font-size="15" text-anchor="middle" fill="black">SPL</text>
  </a>
</svg>
